X:5
T:Green Gavel
%%score 1 { ( 2 4 ) | 3 }
L:1/4
Q:1/4=120
M:3/4
I:linebreak $
K:F
V:1 treble nm="Violin"
V:2 treble nm="Piano"
V:4 treble 
V:3 bass 
V:1
C |:"F" F A C | F A c |"C7" B A G |"F" F z C |$"F" F A C | F A c |"C7" B A G |"F" F z C |$ 
w: Green|grav- el, green|grav- el, The|grass is so|green, Through|all the cre-|a- tion A|sight to be|seen! Oh,|
"F" F A C | F A c |"C7" B A G |"F" F z C |$"F" F A c | F A c |"C7" B A G |"F""C" F2 z :| 
w: Mar- y, oh,|Mar- y, Your|true love is|dead, He|sent you a|let- ter, Pray,|turn back your|head.|
V:2
C |: F A C | F A c | B A G | [A,CF] z C |$ F A C | F A c | B A G | [A,CF] z C |$ F A C | F A c | 
B A G | [A,CF] z C |$ F A C | F A c | B A G | [A,CF] z C :| 
V:3
z |: F,, C, F, | F,, C, F, | C,, F,, C, | F,, C, F, |$ F,, C, F, | F,, C, F, | C,, F,, C, | 
[F,,C,]2 z |$ F,, C, F, | F,, C, F, | C,, F,, C, | F,, C, F, |$ F,, C, F, | F,, C, F, | 
C,, F,, C, | [F,,C,]2 z :| 
V:4
x |: [A,C] z x | [A,C] z z | [CE] z [B,E] | x3 |$ [A,C] z x | [A,C] z z | [CE] z [B,E] | x3 |$ 
[A,C] z x | [A,C] z z | [CE] z [B,E] | x3 |$ [A,C] z x | [A,C] z z | [CE] z [B,E] | x3 :| 



